X: 95
T: Cameronian
M: C|
L: 1/8
R: reel
K: D
A2FA DAFA|GFEF GBdB|A2FA DAFA|GBAG FDD2|
AF F/E/F DF F/E/F|GE E/D/E GBdB|A2FA DAFA|GBAG FDD2 :|
Addc d2dA|Bdef gfed|cAeA fAeA|cdef gfeg|
faeg faeg|fddc defg|afge d2cA|BdAG FDD2 :|
